X: 41366
T: Turriff Schottische, The
R: strathspey
M: 4/4
K: Gmajor
d2|B<d d2 G<B B2|D2 GD ED E<G|E<A A2 B<A A2|edef ge d<c|
B<d d2 G<B B2|DEGA BA B<d|eg f<a gedc|B2 G2 G2 dc|
B<d g2 ed e<g|G2 dG ed B<G|B<A A2 BA B<d|edef ge d<c|
B<d g2 ed e<g|DEGA BA B<d|eg f<a gedc|B2 G2 G2||

